!!!!SEGMENT: pl-kk--i-533--005_studzinski-piotr--nr-5-omnes-gentes-plaudite.krn
!!!cenid: 18xx:4474
!!!COM: Studziński, Piotr
!!!COM-rismID: pe50044409
!!!CDT: 1825/10/16-1869/04/20
!!!CNT: Polish
!!!OTL: Nr 5. Omnes gentes plaudite
!!!PDT:
!!!AGN: Sacred
!!!YEC: Copyright 2022 Narodowy Instytut Fryderyka Chopina (https://polishscores.org)
!!!YEM: License CC-BY-4.0 (https://creativecommons.org/licenses/by/4.0)
!!!SMS-siglum: PL-Kk
!!!SMS-shelfmark: I.533
!!!SMS-variant: Soprano: PL-Kk I.533: 4 ; Tenor: PL-Kk I.533: 15 ; Basso: PL-Kk I.533: 20
!!!SMS-altvar: Partytura: PL-Kk I.533: 26-27
!!!SMS-shelfwork: 005 W
!!!NIFC-rismSourceID: 1001210519
!!!NIFC-rismChildID: 1001210541
!!!NIFC-islandoraID: pl-kk:16805
!!!URL-pdf-islandora: https://repozytorium.nifc.pl/islandora/object/pl-kk%3A16805/datastream/PDF/view
!!!URL-scan: https://polish.musicsources.pl/pl/lokalizacje/galeria/rekopisy/7160/1 @EN{Scan on Polish Music Sources Website} @PL{Skany w portalu Dziedzictwo Muzyki Polskiej w otwartym dostępie}
!!!IIIF:
!!!ONB-nifc:
!!!AIN: 1 alto 1 bass 1 soprn 1 tenor
!!!key: D-
**kern	**text	**dynam	**kern	**text	**dynam	**kern	**kern	**text	**dynam
*part4	*part4	*part4	*part3	*part3	*part3	*part2	*part1	*part1	*part1
*staff4	*staff4	*	*staff3	*staff3	*	*staff2	*staff1	*staff1	*
*ICvox	*	*	*ICvox	*	*	*ICvox	*ICvox	*	*
*Ibass	*	*	*Itenor	*	*	*Ialto	*Isoprn	*	*
*I"Baſso	*	*	*I"Tenor	*	*	*I"Alto	*I"Soprano	*	*
*I'B	*	*	*I'T	*	*	*I'A	*I'S	*	*
*clefF4	*	*	*clefC4	*	*	*clefC3	*clefG2	*	*
*k[b-e-a-d-g-]	*	*	*k[b-e-a-d-g-]	*	*	*k[b-e-a-d-g-]	*k[b-e-a-d-g-]	*	*
*D-:	*	*	*D-:	*	*	*D-:	*D-:	*	*
*M3/4	*	*	*M3/4	*	*	*M3/4	*M3/4	*	*
*all\right	*	*	*all\right	*	*	*	*all\right	*	*
=1	=1	=1	=1	=1	=1	=1	=1	=1	=1
*2\right	*	*below	*2\right	*	*below	*	*	*	*below
!LO:TX:a:t=Modto	!	!	!LO:TX:a:t=Modto	!	!	!LO:TX:a:t=tacet	!LO:TX:a:t=Modto	!	!
2D-\	Om-	p	2A-\	Om-	p	2.ryy	2f/	Om-	p
4D-\	-nes	.	4A-\	-nes	.	.	4f/	-nes	.
=2	=2	=2	=2	=2	=2	=2	=2	=2	=2
4E-\	gen-	.	4A-\	gen-	.	2.ryy	4g-/	gen-	.
4G-\	-tes	.	4A-\	-tes	.	.	4e-/	-tes	.
4G-\	plan-	.	4A-\	plan-	.	.	4c/	plan-	.
=3	=3	=3	=3	=3	=3	=3	=3	=3	=3
(4F\	-di-	.	2A-\	-di-	.	2.ryy	(4d-/	-di-	.
4C\)	.	.	.	.	.	.	4e-/)	.	.
4D-\	-te	.	4A-\	-te	.	.	4f/	-te	.
=4	=4	=4	=4	=4	=4	=4	=4	=4	=4
(4A-\	ma-	.	4.d-\	ma-	.	2.ryy	4.f/	ma-	.
8AA-/)	.	.	.	.	.	.	.	.	.
8AA-/	-ni-	.	8c\	-ni-	.	.	8e-/	-ni-	.
4AA-/	-bus	.	4c\	-bus	.	.	4e-/	-bus	.
!LO:LB:g=original	!	!	!	!	!	!	!	!	!
=5	=5	=5	=5	=5	=5	=5	=5	=5	=5
4E-\	om-	.	4B-\	om-	.	2.ryy	4g-/	om-	.
4E-\	-nes	.	4e-\	-nes	.	.	4g-/	-nes	.
4E-\	plan-	.	4d-\	plan-	.	.	4g-/	plan-	.
!	!	!	!LO:LB:g=original	!	!	!	!	!	!
=6	=6	=6	=6	=6	=6	=6	=6	=6	=6
2A-\	-di-	.	2c\	-di-	.	2.ryy	2g-/	-di-	.
4D-\	-te	.	4A-\	-te	.	.	4g-/	-te	.
!	!	!	!	!	!	!	!LO:LB:g=original	!	!
=7	=7	=7	=7	=7	=7	=7	=7	=7	=7
2E-\	ma-	.	(4c\	ma-	.	2.ryy	(4e-/	ma-	.
.	.	.	4d-\)	.	.	.	4f/)	.	.
4B- 4E-\	-ni-	.	4d-\	-ni-	.	.	4gn/	-ni-	.
=8	=8	=8	=8	=8	=8	=8	=8	=8	=8
2c 2A-\	-bus	.	2c\	-bus	.	2.ryy	2a-/	-bus	.
4r	.	.	4r	.	.	.	4r	.	.
=9	=9	=9	=9	=9	=9	=9	=9	=9	=9
2A-\	Ju-	.	2c\	Ju-	.	2.ryy	2a-/	Ju-	.
4B-\	-bi-	.	4d-\	-bi-	.	.	4a-/	-bi-	.
=10	=10	=10	=10	=10	=10	=10	=10	=10	=10
(4Bn\	-la-	.	(4dn\	-la-	.	2.ryy	2a-/	-la-	.
4c\)	.	.	4e-\)	.	.	.	.	.	.
4c\	-te	.	4e-\	-te	.	.	4a-/	-te	.
=11	=11	=11	=11	=11	=11	=11	=11	=11	=11
4C/	De-	.	4A-\	De-	.	2.ryy	8ee-\L	De-	.
.	.	.	.	.	.	.	8cc\J	.	.
4C/	-o	.	4A-\	-o	.	.	8a-/L	-o	.
.	.	.	.	.	.	.	8b-/J	.	.
4C/	in	.	4A-\	in	.	.	8a-/L	in	.
.	.	.	.	.	.	.	8g-/J	.	.
!LO:LB:g=original	!	!	!	!	!	!	!	!	!
=12	=12	=12	=12	=12	=12	=12	=12	=12	=12
2D-\	vo-	.	2A-\	vo-	.	2.ryy	2g-/	vo-	.
4D-\	-ce	.	4A-\	-ce	.	.	4f/	-ce	.
!	!	!	!LO:LB:g=original	!	!	!	!	!	!
=13	=13	=13	=13	=13	=13	=13	=13	=13	=13
2F\	e-	f	2d-\	e-	.	2.ryy	(4a-\	e-	.
.	.	.	.	.	.	.	4ff\)	.	.
4F\	-xul-	.	4d-\	-xul-	.	.	(8ee-\L	-xul-	.
.	.	.	.	.	.	.	8dd-\J)	.	.
=14	=14	=14	=14	=14	=14	=14	=14	=14	=14
2G-\	-ta-	.	2B-\	-ta-	.	2.ryy	(8cc\L	-ta-	.
.	.	.	.	.	.	.	8dd-\	.	.
.	.	.	.	.	.	.	8ee-\	.	.
.	.	.	.	.	.	.	8dd-\J)	.	.
4G-\	-ti-	.	4e-\	-ti-	.	.	(8b-\L	-ti-	.
.	.	.	.	.	.	.	8g-\J)	.	.
!	!	!	!	!	!	!	!LO:LB:g=original	!	!
=15	=15	=15	=15	=15	=15	=15	=15	=15	=15
2.A-\	-o-	p	(2d-\	-o-	.	2.ryy	(2f/	-o-	.
.	.	.	4c\)	.	.	.	4e-/)	.	.
=16	=16	=16	=16	=16	=16	=16	=16	=16	=16
2D-\	-nis	.	(4e-\	-nis.	.	2.ryy	(4g-/	-nis	.
.	.	.	4d-\)	.	.	.	4f/)	.	.
4r	.	.	4r	.	.	.	4r	.	.
=17	=17	=17	=17	=17	=17	=17	=17	=17	=17
2F\	e-	.	2d-\	e-	f	2.ryy	(4a-\	e-	f
.	.	.	.	.	.	.	4ff\)	.	.
4F\	-xul-	.	4d-\	-xul-	.	.	(8ee-\L	-xul-	.
.	.	.	.	.	.	.	8dd-\J)	.	.
=18	=18	=18	=18	=18	=18	=18	=18	=18	=18
2G-\	-ta-	.	2B-\	-ta-	.	2.ryy	(8cc\L	-ta-	.
.	.	.	.	.	.	.	8dd-\	.	.
.	.	.	.	.	.	.	8ee-\	.	.
.	.	.	.	.	.	.	8dd-\J)	.	.
4G-\	-ti-	.	4e-\	-ti-	.	.	8b-\L	-ti-	.
.	.	.	.	.	.	.	8g-\J	.	.
=19	=19	=19	=19	=19	=19	=19	=19	=19	=19
2A-\	-o-	.	(2d-\	-o-	p	2.ryy	(2f/	-o-	.
4G- 4AA-/	.	.	4c\)	.	.	.	4e-/)	.	.
!LO:LB:g=original	!	!	!	!	!	!	!	!	!
=20	=20	=20	=20	=20	=20	=20	=20	=20	=20
4F 4D-\	-nis	.	4A-\	-nis	.	2.ryy	4d-/	-nis	.
4r	.	.	4r	.	.	.	4r	.	.
4r	.	.	4r	.	.	.	4r	.	.
!	!	!	!LO:LB:g=original	!	!	!	!	!	!
=21	=21	=21	=21	=21	=21	=21	=21	=21	=21
4.D-\	Qvo-	.	4.A-\	Qvo-	p	2.ryy	4.f/	Qvo-	.
8D-\	-ni-	.	8A-\	-ni-	.	.	8f/	-ni-	.
4D-\	-am	.	4A-\	-am	.	.	4f/	-am	.
!	!	!	!	!	!	!	!LO:LB:g=original	!	!
=22	=22	=22	=22	=22	=22	=22	=22	=22	=22
2E-\	Do-	.	2c\	Do-	.	2.ryy	2a-/	Do-	.
4G-\	-mi-	.	4e-\	-mi-	.	.	4a-/	-mi-	.
=23	=23	=23	=23	=23	=23	=23	=23	=23	=23
2F\	-nus	.	2d-\	-nus	.	2.ryy	(4a-/	-nus	.
.	.	.	.	.	.	.	4dd-\)	.	.
4An 4F\	e-	.	4e-\	e-	.	.	4cc\	e-	.
=24	=24	=24	=24	=24	=24	=24	=24	=24	=24
*	*	*	*	*	*	*	*2\right	*	*
2B- 2G-\	-xul-	.	2d-\	-xul-	.	2.ryy	2cc\	-xul-	.
4B- 4G-\	-sus	.	4d-\	-sus	.	.	4b-\	-sus	.
=25	=25	=25	=25	=25	=25	=25	=25	=25	=25
[4B- 4G-\	et	.	(4B-\	et	.	2.ryy	(2dd-\	et	.
4B-\]	.	.	4d-\)	.	.	.	.	.	.
4d-\	.	.	4g-\	.	.	.	4b-\)	.	.
=26	=26	=26	=26	=26	=26	=26	=26	=26	=26
2.A-\	ter-	.	(2f\	ter-	.	2.ryy	(2a-/	ter-	.
.	.	.	4d-\)	.	.	.	4f/)	.	.
=27	=27	=27	=27	=27	=27	=27	=27	=27	=27
2AA-/	-ri-	.	(4e-\	-ri-	.	2.ryy	(4g-/	-ri-	.
.	.	.	4c\)	.	.	.	4e-/)	.	.
4AA-/	-bi-	.	4G-\	-bi-	.	.	4c/	-bi-	.
!LO:LB:g=original	!	!	!	!	!	!	!	!	!
=28	=28	=28	=28	=28	=28	=28	=28	=28	=28
2D-\	-lis.	.	2F/	-lis	.	2.ryy	2d-/	-lis	.
4r	.	.	4r	.	.	.	4r	.	.
!	!	!	!LO:LB:g=original	!	!	!	!	!	!
=29	=29	=29	=29	=29	=29	=29	=29	=29	=29
!	!	!	!LO:TX:t=P:problem:wykreślone 4d-\	!	!	!	!	!	!
2.B-\	rex	.	2.d-\	rex	.	2.ryy	2.f/	rex	.
=30	=30	=30	=30	=30	=30	=30	=30	=30	=30
2An\	ma-	.	2c\	ma-	.	2.ryy	2f/	ma-	.
4A\	-gnus	.	4c\	-gnum	.	.	4f/	-gnus	.
!	!	!	!	!	!	!	!LO:LB:g=original	!	!
=31	=31	=31	=31	=31	=31	=31	=31	=31	=31
2.c\	rex	.	2.e-\	rex	.	2.ryy	2.f/	rex	.
=32	=32	=32	=32	=32	=32	=32	=32	=32	=32
2B-\	ma-	.	2d-\	ma-	.	2.ryy	2f/	ma-	.
4B-\	-gnus	.	4d-\	-gnum	.	.	4f/	-gnus	.
=33	=33	=33	=33	=33	=33	=33	=33	=33	=33
(4B-\	su-	.	2f\	su-	f	2.ryy	(4dd-\	su-	.
4A-\)	.	.	.	.	.	.	4cc\)	.	.
4G-\	-per	.	4d-\	-per	.	.	4b-\	-per	.
=34	=34	=34	=34	=34	=34	=34	=34	=34	=34
2F\	om-	.	2d-\	om-	.	2.ryy	(4a-/	om-	.
.	.	.	.	.	.	.	4an/)	.	.
4G-\	-nem	.	4d-\	-nem	.	.	(8cc\L	-nem	.
.	.	.	.	.	.	.	8b-\J)	.	.
=35	=35	=35	=35	=35	=35	=35	=35	=35	=35
2.A-\	ter-	.	(4d-\	ter-	.	2.ryy	(2e-/	ter-	.
.	.	.	2c\)	.	.	.	.	.	.
.	.	.	.	.	.	.	4a-/)	.	.
=36	=36	=36	=36	=36	=36	=36	=36	=36	=36
4D-\	-ram	.	4A-\	-ram	.	2.ryy	4f/	-ram	.
4r	.	.	4r	.	.	.	4r	.	.
4r	.	.	4r	.	.	.	4r	.	.
!LO:LB:g=original	!	!	!	!	!	!	!	!	!
=37	=37	=37	=37	=37	=37	=37	=37	=37	=37
2.F\	rex	.	2.d-\	rex	.	2.ryy	2.a-/	rex	.
!	!	!	!LO:LB:g=original	!	!	!	!	!	!
=38	=38	=38	=38	=38	=38	=38	=38	=38	=38
2E-\	ma-	.	2c\	mag-	p	2.ryy	(4.a-/	ma-	.
.	.	.	.	.	.	.	8b-/)	.	.
4E-\	-gnum	.	4c\	-num	.	.	4a-/	-gnum	.
=39	=39	=39	=39	=39	=39	=39	=39	=39	=39
2.G-\	rex	.	2.e-\	rex	.	2.ryy	2.a-/	rex	.
!	!	!	!	!	!	!	!LO:LB:g=original	!	!
=40	=40	=40	=40	=40	=40	=40	=40	=40	=40
2F\	ma-	.	2d-\	ma-	.	2.ryy	(4.a-/	ma-	.
.	.	.	.	.	.	.	8b-/)	.	.
4F\	-gnum	.	4d-\	-gnum	.	.	4a-/	-gnum	.
=41	=41	=41	=41	=41	=41	=41	=41	=41	=41
2F\	su-	f	2d-\	su-	.	2.ryy	4a-\	su-	f
.	.	.	.	.	.	.	(8ff\L	.	.
.	.	.	.	.	.	.	8cc\J)	.	.
4F\	-per	.	4d-\	-per	.	.	(8ee-\L	-per	.
.	.	.	.	.	.	.	8dd-\J)	.	.
=42	=42	=42	=42	=42	=42	=42	=42	=42	=42
!	!	!	!LO:TX:a:t=solo	!	!	!	!	!	!
2G-\	om-	.	4d-\	om-	f	2.ryy	2b-\	om-	.
.	.	.	(8g-\L	.	.	.	.	.	.
.	.	.	8dn\)	.	.	.	.	.	.
4G-\	-nem	.	(8f\	-nem	.	.	4b-\	nem	.
.	.	.	8e-\J)	.	.	.	.	.	.
=43	=43	=43	=43	=43	=43	=43	=43	=43	=43
4A-\	ter-	.	2.c\	ter-	.	2.ryy	2.g-/	ter-	.
(8Gn\L	.	.	.	.	.	.	.	.	.
8A-\	.	.	.	.	.	.	.	.	.
8B-\	.	.	.	.	.	.	.	.	.
8A-\J)	.	.	.	.	.	.	.	.	.
=44	=44	=44	=44	=44	=44	=44	=44	=44	=44
4D-\	-ra	.	4A-/	-ra	.	2.ryy	4f/	-ra	.
4A-\	su-	.	4r	.	.	.	4r	.	.
4F\	-per	.	4r	.	.	.	4r	.	.
!LO:LB:g=original	!	!	!	!	!	!	!	!	!
=45	=45	=45	=45	=45	=45	=45	=45	=45	=45
2D-\	su-	p	(4.A-\	su-	p	2.ryy	2f/	su-	p
.	.	.	8B-\)	.	.	.	.	.	.
4D-\	-per	.	(8c\L	-per	.	.	4f/	-per	.
.	.	.	8d-\J)	.	.	.	.	.	.
!	!	!	!LO:LB:g=original	!	!	!	!	!	!
=46	=46	=46	=46	=46	=46	=46	=46	=46	=46
2G-\	om-	.	2B-\	om-	.	2.ryy	(8e-/L	om-	.
.	.	.	.	.	.	.	8f/	.	.
.	.	.	.	.	.	.	8g-/	.	.
.	.	.	.	.	.	.	8a-/J)	.	.
4G-\	-nem	.	4e-\	-nem	.	.	4b-/	-nem	.
=47	=47	=47	=47	=47	=47	=47	=47	=47	=47
(2A-\	ter-	.	(8f\L	ter-	.	2.ryy	2a-/	ter-	.
.	.	.	8d-\	.	.	.	.	.	.
.	.	.	8A-\	.	.	.	.	.	.
.	.	.	8F\J)	.	.	.	.	.	.
4AA-/)	.	.	4G-\	.	.	.	4c/	.	.
!	!	!	!	!	!	!	!LO:LB:g=original	!	!
=48	=48	=48	=48	=48	=48	=48	=48	=48	=48
4D-\	-rum	.	4F/	-rum	.	2.ryy	4d-/	-rum	.
4D-\	om-	pp	4A-\	om-	pp	.	4f/	om-	pp
4D-\	-nem	.	4A-\	-nem	.	.	4f/	-nem	.
=49	=49	=49	=49	=49	=49	=49	=49	=49	=49
2.D-\	ter-	.	2.A-\	ter-	.	2.ryy	2.f/	ter-	.
=50	=50	=50	=50	=50	=50	=50	=50	=50	=50
4D-\	-rum	.	4F/	-rum.	.	2.ryy	4d-/	-rum.	.
4r	.	.	4r	.	.	.	4r	.	.
4r	.	.	4r	.	.	.	4r	.	.
==	==	==	==	==	==	==	==	==	==
*-	*-	*-	*-	*-	*-	*-	*-	*-	*-
!!!system-decoration: [(s1,s2,s3,s4)]
!!!RDF**kern: > = above
!!!RDF**kern: < = below
!!!RDF**kern: i = editorial accidental
!!!ENC: Andrzej Gręziak
!!!EED: Katarzyna Serwa
!!!END: 2023-10-25
!!!EEV: 2024-05-26
